; Generated by gbr2gcode
G21 G90 G17 G94 G54
G91.1
G00 Z2.50
G00 X0.000 Y0.000
; --- Isolation ---
; Layer: Echo-F_Cu.gbr
G00 Z2.50
G00 X0.298 Y0.298
G01 Z1.40 F50.00
G03 X1.016 Y0.000 I0.718 J0.718 F200.00
G01 X47.752 Y0.000
G03 X48.768 Y1.016 I-0.000 J1.016
G01 X48.768 Y9.144
G03 X47.752 Y10.160 I-1.016 J0.000
G01 X1.016 Y10.160
G03 X0.000 Y9.144 I-0.000 J-1.016
G01 X0.000 Y1.016
G03 X0.298 Y0.298 I1.016 J0.000
G00 Z2.50
G00 X0.475 Y0.374
G01 Z1.40 F50.00
G01 X0.371 Y0.478 F200.00
G01 X0.287 Y0.598
G01 X0.225 Y0.735
G01 X0.188 Y0.882
G01 X0.175 Y1.025
G01 X0.175 Y2.807
G01 X1.431 Y2.807
G01 X1.449 Y2.751
G01 X1.400 Y2.606
G01 X1.393 Y2.530
G01 X1.398 Y1.539
G01 X1.429 Y1.474
G01 X1.492 Y1.422
G01 X1.567 Y1.405
G01 X2.018 Y1.405
G01 X2.018 Y1.255
G01 X1.527 Y1.250
G01 X1.462 Y1.219
G01 X1.411 Y1.156
G01 X1.393 Y1.081
G01 X1.393 Y0.175
G01 X1.020 Y0.176
G01 X0.852 Y0.194
G01 X0.719 Y0.232
G01 X0.594 Y0.290
G01 X0.475 Y0.374
G00 Z2.50
G00 X1.743 Y0.175
G01 Z1.40 F50.00
G01 X1.743 Y0.905 F200.00
G01 X2.018 Y0.905
G01 X2.018 Y0.175
G01 X1.743 Y0.175
G00 Z2.50
G00 X1.743 Y1.755
G01 Z1.40 F50.00
G01 X1.746 Y2.547 F200.00
G01 X1.799 Y2.705
G01 X1.788 Y2.851
G01 X1.746 Y2.963
G01 X1.743 Y3.505
G01 X2.018 Y3.505
G01 X2.022 Y3.011
G01 X2.053 Y2.982
G01 X2.593 Y2.980
G01 X2.593 Y2.530
G01 X2.049 Y2.526
G01 X2.020 Y2.495
G01 X2.018 Y1.755
G01 X1.743 Y1.755
G00 Z2.50
G00 X2.943 Y2.530
G01 Z1.40 F50.00
G01 X2.943 Y2.980 F200.00
G01 X3.093 Y2.980
G01 X3.093 Y2.530
G01 X2.943 Y2.530
G00 Z2.50
G00 X3.443 Y2.530
G01 Z1.40 F50.00
G01 X3.443 Y2.980 F200.00
G01 X3.987 Y2.984
G01 X4.016 Y3.015
G01 X4.018 Y3.505
G01 X4.344 Y3.505
G01 X4.320 Y3.456
G01 X4.293 Y3.340
G01 X4.290 Y2.963
G01 X4.237 Y2.805
G01 X4.248 Y2.659
G01 X4.290 Y2.547
G01 X4.293 Y1.755
G01 X4.018 Y1.755
G03 X4.012 Y2.504 I-1.149 J0.365
G01 X3.977 Y2.529
G01 X3.443 Y2.530
G00 Z2.50
G00 X4.588 Y2.749
G01 Z1.40 F50.00
G01 X4.636 Y2.904 F200.00
G01 X4.643 Y2.980
G01 X4.643 Y3.155
G01 X4.705 Y3.083
G01 X4.863 Y2.973
G01 X5.042 Y2.912
G01 X5.118 Y2.905
G01 X5.709 Y2.910
G01 X5.774 Y2.941
G01 X5.826 Y3.004
G01 X5.843 Y3.078
G01 X5.843 Y3.530
G01 X5.893 Y3.530
G01 X5.898 Y3.039
G01 X5.929 Y2.974
G01 X5.992 Y2.922
G01 X6.067 Y2.905
G01 X6.632 Y2.906
G01 X6.737 Y2.922
G01 X6.912 Y2.995
G01 X7.062 Y3.114
G01 X7.171 Y3.266
G01 X7.236 Y3.454
G01 X7.241 Y3.605
G01 X7.211 Y3.681
G01 X7.158 Y3.730
G01 X7.080 Y3.755
G01 X7.055 Y3.755
G01 X7.095 Y3.807
G01 X7.164 Y3.834
G01 X7.181 Y3.846
G01 X8.591 Y2.447
G01 X8.772 Y2.349
G01 X8.971 Y2.302
G01 X9.143 Y2.302
G01 X9.148 Y1.733
G01 X9.179 Y1.668
G01 X9.242 Y1.617
G01 X9.317 Y1.599
G01 X9.768 Y1.599
G01 X9.768 Y1.449
G01 X9.277 Y1.444
G01 X9.212 Y1.413
G01 X9.161 Y1.350
G01 X9.143 Y1.276
G01 X9.144 Y0.610
G01 X9.160 Y0.505
G01 X9.232 Y0.331
G01 X9.352 Y0.180
G01 X9.357 Y0.175
G01 X4.643 Y0.175
G01 X4.638 Y1.121
G01 X4.607 Y1.186
G01 X4.544 Y1.237
G01 X4.469 Y1.255
G01 X4.018 Y1.255
G01 X4.018 Y1.405
G01 X4.509 Y1.410
G01 X4.574 Y1.441
G01 X4.625 Y1.504
G01 X4.643 Y1.578
G01 X4.642 Y2.544
G01 X4.625 Y2.649
G01 X4.588 Y2.749
G00 Z2.50
G00 X5.011 Y3.292
G01 Z1.40 F50.00
G01 X4.936 Y3.348 F200.00
G01 X4.888 Y3.411
G01 X5.000 Y3.463
G01 X5.053 Y3.507
G01 X5.083 Y3.557
G01 X5.125 Y3.555
G01 X5.159 Y3.531
G01 X5.493 Y3.530
G01 X5.493 Y3.255
G01 X5.101 Y3.258
G01 X5.011 Y3.292
G00 Z2.50
G00 X4.676 Y3.755
G01 Z1.40 F50.00
G01 X4.627 Y3.752 F200.00
G01 X4.581 Y3.813
G01 X4.518 Y3.848
G01 X4.469 Y3.855
G01 X4.018 Y3.855
G01 X4.018 Y4.005
G01 X4.492 Y4.006
G01 X4.504 Y3.918
G01 X4.547 Y3.854
G01 X4.616 Y3.813
G01 X4.629 Y3.809
G01 X4.675 Y3.755
G00 Z2.50
G00 X4.293 Y0.905
G01 Z1.40 F50.00
G01 X4.293 Y0.175 F200.00
G01 X4.018 Y0.175
G01 X4.018 Y0.905
G01 X4.293 Y0.905
G00 Z2.50
G00 X6.243 Y3.255
G01 Z1.40 F50.00
G01 X6.243 Y3.530 F200.00
G01 X6.586 Y3.534
G01 X6.610 Y3.554
G01 X6.648 Y3.557
G01 X6.744 Y3.454
G01 X6.850 Y3.414
G01 X6.800 Y3.348
G01 X6.725 Y3.292
G01 X6.635 Y3.258
G01 X6.243 Y3.255
G00 Z2.50
G00 X9.493 Y2.302
G01 Z1.40 F50.00
G01 X9.768 Y2.302 F200.00
G01 X9.768 Y1.949
G01 X9.493 Y1.949
G01 X9.493 Y2.302
G00 Z2.50
G00 X9.493 Y1.099
G01 Z1.40 F50.00
G01 X9.768 Y1.099 F200.00
G01 X9.772 Y0.656
G01 X9.803 Y0.626
G01 X11.536 Y0.628
G01 X11.566 Y0.659
G01 X11.568 Y1.099
G01 X11.843 Y1.099
G01 X11.840 Y0.607
G01 X11.806 Y0.517
G01 X11.750 Y0.442
G01 X11.602 Y0.325
G01 X11.572 Y0.280
G01 X11.530 Y0.175
G01 X9.801 Y0.175
G01 X9.775 Y0.265
G01 X9.689 Y0.365
G01 X9.586 Y0.442
G01 X9.530 Y0.517
G01 X9.496 Y0.607
G01 X9.493 Y1.099
G00 Z2.50
G00 X11.568 Y1.949
G01 Z1.40 F50.00
G01 X11.568 Y2.302 F200.00
G01 X11.843 Y2.302
G01 X11.843 Y1.949
G01 X11.568 Y1.949
G00 Z2.50
G00 X22.927 Y6.035
G01 Z1.40 F50.00
G01 X22.927 Y6.336 F200.00
G01 X23.010 Y6.308
G02 X23.340 Y5.759 I-0.236 J-0.516
G01 X23.065 Y5.759
G01 X23.060 Y5.838
G01 X23.024 Y5.936
G01 X22.956 Y6.015
G01 X22.927 Y6.035
G00 Z2.50
G00 X22.078 Y5.734
G01 Z1.40 F50.00
G01 X22.078 Y5.669 F200.00
G01 X22.047 Y5.734
G01 X22.078 Y5.734
G00 Z2.50
G00 X22.427 Y5.759
G01 Z1.40 F50.00
G01 X22.427 Y5.853 F200.00
G01 X22.440 Y5.784
G01 X22.438 Y5.759
G01 X22.427 Y5.759
G00 Z2.50
G00 X22.567 Y5.759
G01 Z1.40 F50.00
G01 X22.568 Y5.818 F200.00
G01 X22.577 Y5.852
G01 X22.578 Y5.759
G01 X22.567 Y5.759
G00 Z2.50
G00 X22.660 Y5.409
G01 Z1.40 F50.00
G01 X22.715 Y5.409 F200.00
G01 X22.715 Y5.259
G01 X22.677 Y5.259
G01 X22.671 Y5.381
G01 X22.660 Y5.409
G00 Z2.50
G00 X22.568 Y4.919
G01 Z1.40 F50.00
G01 X22.625 Y4.909 F200.00
G01 X22.722 Y4.909
G01 X22.715 Y4.887
G01 X22.715 Y4.691
G01 X22.637 Y4.731
G01 X22.592 Y4.784
G01 X22.568 Y4.849
G01 X22.568 Y4.918
G00 Z2.50
G00 X22.437 Y4.918
G01 Z1.40 F50.00
G02 X22.290 Y4.691 I-0.196 J-0.035 F200.00
G01 X22.286 Y4.903
G01 X22.255 Y4.932
G01 X22.047 Y4.934
G01 X22.067 Y4.984
G02 X22.437 Y4.918 I0.173 J-0.100
G00 Z2.50
G00 X22.239 Y4.584
G01 Z1.40 F50.00
G01 X22.819 Y4.589 F200.00
G01 X22.917 Y4.625
G01 X22.996 Y4.693
G01 X23.047 Y4.783
G01 X23.065 Y4.883
G01 X23.065 Y4.909
G01 X23.340 Y4.909
G01 X23.332 Y4.768
G01 X23.289 Y4.639
G01 X23.233 Y4.541
G01 X23.208 Y4.468
G01 X21.769 Y4.466
G01 X21.790 Y4.507
G01 X21.854 Y4.711
G01 X21.865 Y4.832
G01 X21.865 Y5.849
G01 X21.847 Y5.990
G01 X21.793 Y6.151
G01 X21.880 Y6.238
G01 X21.995 Y6.309
G01 X22.078 Y6.336
G01 X22.078 Y6.035
G01 X22.009 Y5.975
G01 X21.958 Y5.885
G01 X21.940 Y5.785
G01 X21.945 Y4.830
G01 X21.981 Y4.732
G01 X22.049 Y4.653
G01 X22.139 Y4.601
G01 X22.239 Y4.584
G00 Z2.50
G00 X21.133 Y4.934
G01 Z1.40 F50.00
G01 X20.922 Y4.930 F200.00
G01 X20.892 Y4.899
G01 X20.890 Y4.691
G01 X20.812 Y4.731
G02 X20.871 Y5.072 I0.128 J0.153
G02 X21.133 Y4.934 I0.069 J-0.186
G00 Z2.50
G00 X20.890 Y5.184
G01 Z1.40 F50.00
G01 X20.767 Y5.184 F200.00
G01 X20.824 Y5.239
G01 X20.850 Y5.306
G01 X20.844 Y5.387
G01 X20.809 Y5.450
G01 X20.767 Y5.484
G01 X20.890 Y5.484
G01 X20.890 Y5.184
G00 Z2.50
G00 X20.940 Y5.584
G01 Z1.40 F50.00
G02 X20.752 Y5.852 I0.000 J0.200 F200.00
G01 X20.787 Y5.912
G01 X20.840 Y5.957
G01 X20.890 Y5.977
G01 X20.894 Y5.766
G01 X20.925 Y5.736
G01 X21.133 Y5.734
G01 X21.113 Y5.684
G01 X21.068 Y5.631
G01 X21.008 Y5.596
G01 X20.940 Y5.584
G00 Z2.50
G00 X20.603 Y5.715
G01 Z1.40 F50.00
G02 X20.222 Y5.734 I-0.187 J0.068 F200.00
G01 X20.433 Y5.738
G01 X20.463 Y5.769
G01 X20.465 Y5.977
G01 X20.515 Y5.957
G01 X20.568 Y5.912
G01 X20.603 Y5.852
G01 X20.615 Y5.784
G01 X20.603 Y5.715
G00 Z2.50
G00 X20.365 Y5.409
G01 Z1.40 F50.00
G01 X20.365 Y5.259 F200.00
G01 X20.215 Y5.259
G01 X20.215 Y5.409
G01 X20.365 Y5.409
G00 Z2.50
G00 X20.380 Y5.081
G01 Z1.40 F50.00
G01 X20.450 Y5.081 F200.00
G02 X20.465 Y4.691 I-0.034 J-0.196
G01 X20.461 Y4.903
G01 X20.430 Y4.932
G01 X20.222 Y4.934
G01 X20.242 Y4.984
G01 X20.287 Y5.037
G01 X20.346 Y5.072
G01 X20.380 Y5.081
G00 Z2.50
G00 X18.918 Y4.911
G01 Z1.40 F50.00
G02 X18.778 Y4.692 I-0.189 J-0.033 F200.00
G01 X18.774 Y4.896
G01 X18.743 Y4.925
G01 X18.542 Y4.928
G01 X18.579 Y5.002
G02 X18.918 Y4.911 I0.148 J-0.124
G00 Z2.50
G00 X19.024 Y4.911
G01 Z1.40 F50.00
G02 X19.401 Y4.928 I0.190 J-0.033 F200.00
G01 X19.197 Y4.924
G01 X19.168 Y4.893
G01 X19.165 Y4.692
G01 X19.091 Y4.729
G01 X19.048 Y4.781
G01 X19.025 Y4.844
G01 X19.024 Y4.911
G00 Z2.50
G00 X19.265 Y5.259
G01 Z1.40 F50.00
G01 X19.265 Y5.409 F200.00
G01 X19.409 Y5.409
G01 X19.409 Y5.259
G01 X19.265 Y5.259
G00 Z2.50
G00 X19.249 Y5.600
G01 Z1.40 F50.00
G02 X19.165 Y5.976 I-0.034 J0.190 F200.00
G01 X19.169 Y5.772
G01 X19.200 Y5.742
G01 X19.401 Y5.740
G01 X19.364 Y5.666
G01 X19.312 Y5.623
G01 X19.249 Y5.600
G00 Z2.50
G00 X18.907 Y5.497
G01 Z1.40 F50.00
G01 X18.849 Y5.459 F200.00
G01 X18.806 Y5.390
G01 X18.797 Y5.318
G01 X18.823 Y5.241
G01 X18.874 Y5.189
G01 X18.907 Y5.172
G01 X18.778 Y5.172
G01 X18.778 Y5.497
G01 X18.907 Y5.497
G00 Z2.50
G00 X18.825 Y5.623
G01 Z1.40 F50.00
G02 X18.542 Y5.740 I-0.097 J0.166 F200.00
G01 X18.746 Y5.744
G01 X18.775 Y5.775
G01 X18.778 Y5.976
G01 X18.852 Y5.939
G02 X18.825 Y5.623 I-0.124 J-0.149
G00 Z2.50
G00 X18.434 Y5.791
G01 Z1.40 F50.00
G01 X18.439 Y4.825 F200.00
G01 X18.474 Y4.729
G01 X18.540 Y4.651
G01 X18.629 Y4.601
G01 X18.727 Y4.584
G01 X19.268 Y4.589
G01 X19.364 Y4.624
G01 X19.442 Y4.690
G01 X19.492 Y4.779
G01 X19.509 Y4.877
G01 X19.509 Y5.159
G01 X20.115 Y5.159
G01 X20.120 Y4.830
G01 X20.156 Y4.732
G01 X20.224 Y4.653
G01 X20.314 Y4.601
G01 X20.414 Y4.584
G01 X20.994 Y4.589
G01 X21.092 Y4.625
G01 X21.171 Y4.693
G01 X21.222 Y4.783
G01 X21.240 Y4.883
G01 X21.235 Y5.838
G01 X21.199 Y5.936
G01 X21.131 Y6.015
G01 X21.041 Y6.067
G01 X20.941 Y6.084
G01 X20.361 Y6.079
G01 X20.263 Y6.043
G01 X20.184 Y5.975
G01 X20.133 Y5.885
G01 X20.115 Y5.785
G01 X20.115 Y5.509
G01 X19.509 Y5.509
G01 X19.504 Y5.843
G01 X19.469 Y5.939
G01 X19.403 Y6.016
G01 X19.314 Y6.067
G01 X19.216 Y6.084
G01 X18.675 Y6.079
G01 X18.579 Y6.044
G01 X18.501 Y5.977
G01 X18.451 Y5.889
G01 X18.434 Y5.791
G00 Z2.50
G00 X18.034 Y6.397
G01 Z1.40 F50.00
G01 X17.899 Y6.525 F200.00
G01 X17.818 Y6.575
G01 X17.818 Y6.602
G01 X18.294 Y6.602
G01 X18.141 Y6.504
G01 X18.034 Y6.397
G00 Z2.50
G00 X17.093 Y5.984
G01 Z1.40 F50.00
G01 X17.093 Y5.958 F200.00
G01 X17.073 Y5.984
G01 X17.093 Y5.984
G00 Z2.50
G00 X17.307 Y5.068
G01 Z1.40 F50.00
G02 X17.526 Y4.928 I0.034 J-0.189 F200.00
G01 X17.322 Y4.924
G01 X17.293 Y4.893
G01 X17.290 Y4.692
G01 X17.216 Y4.729
G02 X17.307 Y5.068 I0.124 J0.149
G00 Z2.50
G00 X17.035 Y4.944
G01 Z1.40 F50.00
G02 X16.903 Y4.692 I-0.181 J-0.066 F200.00
G01 X16.899 Y4.896
G01 X16.868 Y4.925
G01 X16.667 Y4.928
G01 X16.704 Y5.002
G02 X17.035 Y4.944 I0.148 J-0.124
G00 Z2.50
G00 X17.032 Y5.172
G01 Z1.40 F50.00
G01 X16.903 Y5.172 F200.00
G01 X16.903 Y5.280
G01 X17.010 Y5.182
G01 X17.030 Y5.172
G00 Z2.50
G00 X17.161 Y5.172
G01 Z1.40 F50.00
G01 X17.227 Y5.217 F200.00
G01 X17.263 Y5.280
G01 X17.269 Y5.361
G01 X17.244 Y5.429
G01 X17.193 Y5.485
G01 X17.193 Y5.497
G01 X17.290 Y5.497
G01 X17.290 Y5.172
G01 X17.161 Y5.172
G00 Z2.50
G00 X17.274 Y5.608
G01 Z1.40 F50.00
G01 X17.216 Y5.642 F200.00
G01 X17.193 Y5.665
G01 X17.193 Y5.916
G01 X17.243 Y5.958
G01 X17.290 Y5.976
G01 X17.294 Y5.772
G01 X17.325 Y5.742
G01 X17.526 Y5.740
G01 X17.489 Y5.666
G01 X17.437 Y5.623
G01 X17.374 Y5.600
G01 X17.307 Y5.599
G01 X17.274 Y5.608
G00 Z2.50
G00 X17.093 Y5.596
G01 Z1.40 F50.00
G01 X17.073 Y5.596 F200.00
G01 X17.093 Y5.623
G01 X17.093 Y5.596
G00 Z2.50
G00 X16.843 Y5.597
G01 Z1.40 F50.00
G01 X16.786 Y5.608 F200.00
G01 X16.729 Y5.642
G01 X16.685 Y5.693
G01 X16.667 Y5.740
G01 X16.843 Y5.740
G01 X16.843 Y5.597
G00 Z2.50
G00 X16.559 Y5.791
G01 Z1.40 F50.00
G01 X16.564 Y4.825 F200.00
G01 X16.599 Y4.729
G01 X16.665 Y4.651
G01 X16.754 Y4.601
G01 X16.852 Y4.584
G01 X17.393 Y4.589
G01 X17.489 Y4.624
G01 X17.567 Y4.690
G01 X17.617 Y4.779
G01 X17.634 Y4.877
G01 X17.629 Y5.843
G01 X17.594 Y5.939
G01 X17.528 Y6.016
G01 X17.439 Y6.067
G01 X17.341 Y6.084
G01 X17.193 Y6.084
G01 X17.193 Y7.228
G03 X18.654 Y7.234 I0.721 J2.212
G01 X18.679 Y7.269
G03 X18.674 Y9.002 I-2.618 J0.858
G01 X18.639 Y9.027
G03 X16.906 Y9.022 I-0.858 J-2.646
G01 X16.881 Y8.987
G01 X16.880 Y7.473
G01 X16.846 Y7.399
G01 X16.843 Y6.083
G01 X16.750 Y6.066
G01 X16.662 Y6.014
G01 X16.597 Y5.935
G01 X16.563 Y5.839
G01 X16.559 Y5.791
G00 Z2.50
G00 X15.185 Y5.984
G01 Z1.40 F50.00
G01 X15.165 Y5.958 F200.00
G01 X15.165 Y5.984
G01 X15.185 Y5.984
G00 Z2.50
G00 X15.065 Y5.916
G01 Z1.40 F50.00
G01 X15.065 Y5.665 F200.00
G02 X14.732 Y5.740 I-0.147 J0.125
G01 X14.936 Y5.744
G01 X14.965 Y5.775
G01 X14.968 Y5.976
G01 X15.042 Y5.939
G01 X15.065 Y5.916
G00 Z2.50
G00 X15.165 Y5.623
G01 Z1.40 F50.00
G01 X15.185 Y5.596 F200.00
G01 X15.165 Y5.596
G01 X15.165 Y5.623
G00 Z2.50
G00 X15.415 Y5.597
G01 Z1.40 F50.00
G01 X15.415 Y5.740 F200.00
G01 X15.591 Y5.740
G01 X15.554 Y5.666
G01 X15.502 Y5.623
G01 X15.439 Y5.600
G01 X15.415 Y5.597
G00 Z2.50
G00 X15.405 Y5.071
G01 Z1.40 F50.00
G01 X15.472 Y5.060 F200.00
G01 X15.530 Y5.026
G01 X15.573 Y4.975
G01 X15.591 Y4.928
G01 X15.387 Y4.924
G01 X15.358 Y4.893
G01 X15.355 Y4.692
G01 X15.281 Y4.729
G02 X15.405 Y5.071 I0.124 J0.149
G00 Z2.50
G00 X15.355 Y5.172
G01 Z1.40 F50.00
G01 X15.226 Y5.172 F200.00
G01 X15.283 Y5.208
G01 X15.355 Y5.280
G01 X15.355 Y5.172
G00 Z2.50
G00 X15.097 Y5.172
G01 Z1.40 F50.00
G01 X14.968 Y5.172 F200.00
G01 X14.968 Y5.497
G01 X15.065 Y5.497
G01 X15.065 Y5.485
G01 X15.009 Y5.420
G01 X14.987 Y5.342
G01 X14.998 Y5.271
G01 X15.045 Y5.204
G01 X15.097 Y5.172
G00 Z2.50
G00 X15.015 Y5.045
G01 Z1.40 F50.00
G02 X14.968 Y4.692 I-0.096 J-0.167 F200.00
G01 X14.964 Y4.896
G01 X14.933 Y4.925
G01 X14.732 Y4.928
G01 X14.769 Y5.002
G01 X14.821 Y5.045
G01 X14.884 Y5.068
G01 X14.951 Y5.068
G01 X15.015 Y5.045
G00 Z2.50
G00 X14.624 Y4.878
G01 Z1.40 F50.00
G01 X14.642 Y4.776 F200.00
G01 X14.694 Y4.688
G01 X14.773 Y4.622
G01 X14.869 Y4.588
G01 X15.458 Y4.589
G01 X15.554 Y4.624
G01 X15.632 Y4.691
G01 X15.682 Y4.779
G01 X15.699 Y4.877
G01 X15.694 Y5.843
G01 X15.659 Y5.939
G01 X15.593 Y6.016
G01 X15.504 Y6.067
G01 X15.415 Y6.083
G03 X15.408 Y7.162 I-2.641 J0.521
G01 X15.367 Y7.232
G01 X15.124 Y7.476
G03 X15.118 Y9.002 I-2.311 J0.754
G01 X15.083 Y9.027
G03 X13.350 Y9.022 I-0.858 J-2.646
G01 X13.325 Y8.987
G03 X13.330 Y7.254 I2.627 J-0.858
G01 X13.365 Y7.229
G01 X14.876 Y7.228
G01 X15.065 Y7.039
G01 X15.065 Y6.084
G01 X14.865 Y6.079
G01 X14.769 Y6.044
G01 X14.691 Y5.977
G01 X14.641 Y5.889
G01 X14.624 Y5.791
G01 X14.624 Y4.878
G00 Z2.50
G00 X13.716 Y4.928
G01 Z1.40 F50.00
G01 X13.512 Y4.924 F200.00
G01 X13.483 Y4.893
G01 X13.480 Y4.692
G01 X13.406 Y4.729
G02 X13.716 Y4.928 I0.123 J0.149
G00 Z2.50
G00 X13.480 Y5.172
G01 Z1.40 F50.00
G01 X13.351 Y5.172 F200.00
G01 X13.409 Y5.209
G01 X13.452 Y5.278
G01 X13.461 Y5.350
G01 X13.435 Y5.427
G01 X13.384 Y5.479
G01 X13.351 Y5.497
G01 X13.480 Y5.497
G01 X13.480 Y5.172
G00 Z2.50
G00 X13.530 Y5.597
G01 Z1.40 F50.00
G02 X13.480 Y5.976 I-0.000 J0.193 F200.00
G01 X13.484 Y5.772
G01 X13.515 Y5.742
G01 X13.716 Y5.740
G01 X13.679 Y5.666
G01 X13.627 Y5.623
G01 X13.564 Y5.600
G01 X13.530 Y5.597
G00 Z2.50
G00 X13.225 Y5.724
G01 Z1.40 F50.00
G02 X12.977 Y5.608 I-0.182 J0.066 F200.00
G01 X12.919 Y5.642
G01 X12.875 Y5.693
G01 X12.857 Y5.740
G01 X13.061 Y5.744
G01 X13.090 Y5.775
G01 X13.093 Y5.976
G01 X13.167 Y5.939
G01 X13.210 Y5.887
G01 X13.233 Y5.824
G01 X13.233 Y5.757
G01 X13.225 Y5.724
G00 Z2.50
G00 X12.993 Y5.409
G01 Z1.40 F50.00
G01 X12.993 Y5.259 F200.00
G01 X12.849 Y5.259
G01 X12.849 Y5.409
G01 X12.993 Y5.409
G00 Z2.50
G00 X13.009 Y5.068
G01 Z1.40 F50.00
G02 X13.093 Y4.692 I0.034 J-0.190 F200.00
G01 X13.089 Y4.896
G01 X13.058 Y4.925
G01 X12.857 Y4.928
G01 X12.894 Y5.002
G01 X12.946 Y5.045
G01 X13.009 Y5.068
G00 Z2.50
G00 X11.515 Y4.918
G01 Z1.40 F50.00
G02 X11.368 Y4.691 I-0.196 J-0.035 F200.00
G01 X11.364 Y4.903
G01 X11.333 Y4.932
G01 X11.125 Y4.934
G01 X11.145 Y4.984
G02 X11.515 Y4.918 I0.173 J-0.100
G00 Z2.50
G00 X11.646 Y4.918
G01 Z1.40 F50.00
G02 X12.036 Y4.934 I0.196 J-0.034 F200.00
G01 X11.825 Y4.930
G01 X11.795 Y4.899
G01 X11.793 Y4.691
G01 X11.715 Y4.731
G01 X11.670 Y4.784
G01 X11.646 Y4.849
G01 X11.646 Y4.918
G00 Z2.50
G00 X11.893 Y5.259
G01 Z1.40 F50.00
G01 X11.893 Y5.409 F200.00
G01 X12.043 Y5.409
G01 X12.043 Y5.259
G01 X11.893 Y5.259
G00 Z2.50
